icons/numix/32x32/mimetypes/application-x-jar.svg

<?xml version="1.0" encoding="UTF-8" standalone="no"?>
<svg
   xmlns:dc="http://purl.org/dc/elements/1.1/"
   xmlns:cc="http://creativecommons.org/ns#"
   xmlns:rdf="http://www.w3.org/1999/02/22-rdf-syntax-ns#"
   xmlns:svg="http://www.w3.org/2000/svg"
   xmlns="http://www.w3.org/2000/svg"
   xmlns:sodipodi="http://sodipodi.sourceforge.net/DTD/sodipodi-0.dtd"
   xmlns:inkscape="http://www.inkscape.org/namespaces/inkscape"
   width="32"
   height="32"
   viewBox="0 0 32 32"
   id="svg2"
   version="1.1"
   inkscape:version="0.48.5 r10040"
   sodipodi:docname="application-x-jar.svg">
  <metadata
     id="metadata42">
    <rdf:RDF>
      <cc:Work
         rdf:about="">
        <dc:format>image/svg+xml</dc:format>
        <dc:type
           rdf:resource="http://purl.org/dc/dcmitype/StillImage" />
      </cc:Work>
    </rdf:RDF>
  </metadata>
  <defs
     id="defs40" />
  <sodipodi:namedview
     pagecolor="#ffffff"
     bordercolor="#666666"
     borderopacity="1"
     objecttolerance="10"
     gridtolerance="10"
     guidetolerance="10"
     inkscape:pageopacity="0"
     inkscape:pageshadow="2"
     inkscape:window-width="1280"
     inkscape:window-height="970"
     id="namedview38"
     showgrid="true"
     inkscape:zoom="10.429825"
     inkscape:cx="19.286753"
     inkscape:cy="22.879023"
     inkscape:window-x="0"
     inkscape:window-y="0"
     inkscape:window-maximized="1"
     inkscape:current-layer="svg2">
    <inkscape:grid
       type="xygrid"
       id="grid3048" />
  </sodipodi:namedview>
  <path
     style="fill:#e66f00;fill-opacity:1"
     d="M 5.335888,2.971e-4 C 4.648414,3.121e-4 4,0.6767881 4,1.3940318 L 4,30.606268 C 4,31.282757 4.687474,32 5.335888,32 l 21.327332,0 c 0.648414,0 1.335888,-0.717243 1.335888,-1.393732 L 28,9 19,1e-7 z"
     id="path4-1"
     inkscape:connector-curvature="0"
     sodipodi:nodetypes="ssssssccs" />
  <path
     style="fill:#000000;fill-opacity:0.19599998"
     d="m 21,9 7,7 0,-7 z"
     id="path6-4"
     inkscape:connector-curvature="0"
     sodipodi:nodetypes="cccc" />
  <path
     style="fill:#ffffff;fill-opacity:0.39200003"
     d="M 19.000306,2.971e-4 27.9919,9 20.378638,9 C 19.705687,9 19.000306,8.286511 19.000306,7.61356 z"
     id="path8-6"
     inkscape:connector-curvature="0"
     sodipodi:nodetypes="ccssc" />
  <g
     style="fill:#ffffff;fill-rule:evenodd"
     id="g10-5"
     transform="matrix(1.3019455,0,0,1.3019455,-33.655593,1.3634433)">
    <path
       d="m 14.339844,19.945312 c 0,0 -0.484375,0.269532 0.34375,0.359376 1.003906,0.109374 1.515625,0.09375 2.621094,-0.105469 0,0 0.289062,0.171875 0.695312,0.320312 -2.476562,1.007813 -5.605469,-0.05859 -3.660156,-0.574219"
       id="path12-6"
       inkscape:connector-curvature="0" />
    <path
       d="m 14.035156,18.632812 c 0,0 -0.542968,0.382813 0.285156,0.460938 1.074219,0.105469 1.917969,0.113281 3.382813,-0.152344 0,0 0.203125,0.195313 0.519531,0.300782 -2.992187,0.832031 -6.332031,0.06641 -4.1875,-0.609376"
       id="path14-7"
       inkscape:connector-curvature="0" />
    <path
       d="m 16.589844,16.40625 c 0.609375,0.664062 -0.164063,1.265625 -0.164063,1.265625 0,0 1.550781,-0.761719 0.839844,-1.710937 -0.664063,-0.886719 -1.175781,-1.324219 1.585937,-2.84375 0,0 -4.332031,1.027343 -2.261718,3.289062"
       id="path16-7"
       inkscape:connector-curvature="0" />
    <path
       d="m 19.863281,20.917969 c 0,0 0.359375,0.28125 -0.394531,0.496093 -1.429688,0.410157 -5.949219,0.535157 -7.207031,0.01563 -0.449219,-0.183594 0.394531,-0.445313 0.664062,-0.496094 0.277344,-0.05859 0.433594,-0.04687 0.433594,-0.04687 -0.5,-0.335938 -3.246094,0.65625 -1.390625,0.941406 5.050781,0.777344 9.207031,-0.347656 7.894531,-0.910156"
       id="path18-0"
       inkscape:connector-curvature="0" />
    <path
       d="m 14.570312,17.273438 c 0,0 -2.300781,0.515624 -0.8125,0.703124 0.625,0.08203 1.875,0.0625 3.042969,-0.03125 0.949219,-0.07422 1.90625,-0.234374 1.90625,-0.234374 0,0 -0.335937,0.132812 -0.578125,0.292968 -2.335937,0.582032 -6.847656,0.308594 -5.550781,-0.285156 1.101563,-0.503906 1.992187,-0.445312 1.992187,-0.445312"
       id="path20-0"
       inkscape:connector-curvature="0" />
    <path
       d="m 18.695312,19.457031 c 2.375,-1.167969 1.277344,-2.292969 0.511719,-2.140625 -0.1875,0.03516 -0.269531,0.07031 -0.269531,0.07031 0,0 0.06641,-0.105469 0.203125,-0.148438 1.515625,-0.507812 2.679687,1.488281 -0.492187,2.28125 0,0 0.03906,-0.03125 0.04687,-0.0625"
       id="path22-0"
       inkscape:connector-curvature="0" />
    <path
       d="m 17.265625,10.667969 c 0,0 1.316406,1.246093 -1.246094,3.164062 -2.054687,1.539063 -0.46875,2.414063 0,3.417969 -1.199219,-1.027344 -2.082031,-1.929688 -1.492187,-2.769531 0.867187,-1.234375 3.269531,-1.832031 2.738281,-3.8125"
       id="path24-9"
       inkscape:connector-curvature="0" />
    <path
       d="m 14.804688,22.628906 c 2.277343,0.136719 5.777343,-0.07813 5.863281,-1.097656 0,0 -0.160157,0.386719 -1.886719,0.695312 -1.945312,0.34375 -4.34375,0.304688 -5.765625,0.08203 0,0 0.292969,0.230468 1.789063,0.320312"
       id="path26-1"
       inkscape:connector-curvature="0" />
  </g>
  <g
     style="fill:#fff;fill-rule:evenodd"
     id="g10">
    <path
       d="M 14.339844 19.28125 C 14.339844 19.28125 13.855469 19.546875 14.683594 19.636719 C 15.6875 19.746094 16.199219 19.730469 17.304688 19.53125 C 17.304688 19.53125 17.59375 19.703125 18 19.855469 C 15.523438 20.859375 12.394531 19.796875 14.339844 19.28125 "
       id="path12" />
    <path
       d="M 14.035156 17.964844 C 14.035156 17.964844 13.492188 18.347656 14.320312 18.429688 C 15.394531 18.535156 16.238281 18.542969 17.703125 18.273438 C 17.703125 18.273438 17.90625 18.46875 18.222656 18.574219 C 15.230469 19.40625 11.890625 18.640625 14.035156 17.964844 "
       id="path14" />
    <path
       d="M 16.589844 15.738281 C 17.199219 16.402344 16.425781 17.003906 16.425781 17.003906 C 16.425781 17.003906 17.976562 16.246094 17.265625 15.296875 C 16.601562 14.410156 16.089844 13.96875 18.851562 12.449219 C 18.851562 12.449219 14.519531 13.476562 16.589844 15.738281 "
       id="path16" />
    <path
       d="M 19.863281 20.253906 C 19.863281 20.253906 20.222656 20.53125 19.46875 20.746094 C 18.039062 21.160156 13.519531 21.28125 12.261719 20.765625 C 11.8125 20.578125 12.65625 20.320312 12.925781 20.265625 C 13.203125 20.207031 13.359375 20.21875 13.359375 20.21875 C 12.859375 19.882812 10.113281 20.878906 11.96875 21.164062 C 17.019531 21.9375 21.175781 20.8125 19.863281 20.253906 "
       id="path18" />
    <path
       d="M 14.570312 16.605469 C 14.570312 16.605469 12.269531 17.125 13.757812 17.3125 C 14.382812 17.390625 15.632812 17.371094 16.800781 17.28125 C 17.75 17.203125 18.707031 17.042969 18.707031 17.042969 C 18.707031 17.042969 18.371094 17.179688 18.128906 17.335938 C 15.792969 17.917969 11.28125 17.648438 12.578125 17.050781 C 13.679688 16.546875 14.570312 16.605469 14.570312 16.605469 "
       id="path20" />
    <path
       d="M 18.695312 18.792969 C 21.070312 17.621094 19.972656 16.496094 19.207031 16.648438 C 19.019531 16.6875 18.9375 16.71875 18.9375 16.71875 C 18.9375 16.71875 19.003906 16.613281 19.140625 16.570312 C 20.65625 16.066406 21.820312 18.0625 18.648438 18.851562 C 18.648438 18.851562 18.6875 18.820312 18.695312 18.792969 "
       id="path22" />
    <path
       d="M 17.265625 10 C 17.265625 10 18.582031 11.246094 16.019531 13.164062 C 13.964844 14.703125 15.550781 15.582031 16.019531 16.582031 C 14.820312 15.558594 13.9375 14.652344 14.527344 13.8125 C 15.394531 12.578125 17.796875 11.980469 17.265625 10 "
       id="path24" />
    <path
       d="M 14.804688 21.960938 C 17.082031 22.101562 20.582031 21.886719 20.667969 20.863281 C 20.667969 20.863281 20.507812 21.25 18.78125 21.558594 C 16.835938 21.90625 14.4375 21.863281 13.015625 21.644531 C 13.015625 21.640625 13.308594 21.871094 14.804688 21.960938 "
       id="path26" />
  </g>
  <path
     style="fill:#000000;fill-opacity:0.19599998"
     d="m 4,24 0,6.667969 C 4,31.316407 4.6875,32 5.332031,32 l 21.335938,0 C 27.3125,32 28,31.316407 28,30.667969 L 28,24 z"
     id="path28"
     inkscape:connector-curvature="0" />
  <g
     style="fill:#ffffff"
     id="g30"
     transform="matrix(1.089106,0,0,1.089106,-1.188863,-1.5628027)">
    <path
       d="m 12.980469,28.164062 c 0,0.25 -0.03516,0.488282 -0.109375,0.710938 -0.06641,0.21875 -0.183594,0.414062 -0.351563,0.582031 -0.15625,0.167969 -0.367187,0.300781 -0.625,0.402344 C 11.636719,29.953125 11.324219,30 10.953125,30 10.566406,30 10.246094,29.957031 9.988281,29.867188 9.730469,29.777344 9.511719,29.667969 9.332031,29.539062 l 0.433594,-0.816406 c 0.15625,0.08984 0.324219,0.175782 0.507813,0.257813 0.191406,0.08594 0.382812,0.125 0.582031,0.125 0.292969,0 0.53125,-0.06641 0.707031,-0.207031 0.183594,-0.144532 0.277344,-0.410157 0.277344,-0.792969 l 0,-2.527344 -1.90625,0 0,-0.851563 3.046875,0 0,3.4375"
       id="path32"
       inkscape:connector-curvature="0" />
    <path
       d="m 16.863281,29.890625 -0.269531,-1.191406 -1.519531,0 -0.257813,1.191406 -1.179687,0 C 13.90625,28.875 14.179688,27.945312 14.457031,27.113281 14.734375,26.273438 15,25.476562 15.257812,24.726562 l 1.234376,0 c 0.269531,0.753907 0.539062,1.558594 0.800781,2.410157 0.273437,0.847656 0.53125,1.765625 0.785156,2.753906 l -1.214844,0 m -1.015625,-4.164063 c -0.0625,0.195313 -0.121094,0.382813 -0.175781,0.558594 -0.04687,0.171875 -0.09766,0.34375 -0.148437,0.519532 -0.04297,0.164062 -0.08594,0.335937 -0.128907,0.507812 -0.03516,0.171875 -0.07031,0.351562 -0.109375,0.535156 l 1.117188,0 c -0.03906,-0.183594 -0.07422,-0.363281 -0.113282,-0.535156 -0.03516,-0.171875 -0.07812,-0.34375 -0.128906,-0.507812 -0.04297,-0.175782 -0.08984,-0.347657 -0.144531,-0.519532 -0.05078,-0.175781 -0.105469,-0.363281 -0.167969,-0.558594"
       id="path34"
       inkscape:connector-curvature="0" />
    <path
       d="m 20.132812,24.667969 c 0.324219,0 0.621094,0.03125 0.882813,0.09766 0.265625,0.06641 0.492187,0.171875 0.683594,0.308594 0.191406,0.140625 0.335937,0.320312 0.433593,0.535156 0.105469,0.210937 0.15625,0.460937 0.15625,0.75 0,0.300781 -0.06641,0.574219 -0.203124,0.820313 -0.136719,0.242187 -0.359376,0.429687 -0.671876,0.558593 0.105469,0.144531 0.214844,0.304688 0.332032,0.484375 0.117187,0.171875 0.230468,0.355469 0.339844,0.550782 0.109374,0.1875 0.214843,0.378906 0.3125,0.574218 0.105468,0.191406 0.195312,0.371094 0.269531,0.542969 l -1.191407,0 c -0.140624,-0.332031 -0.304687,-0.652344 -0.496093,-0.960937 -0.183594,-0.308594 -0.382813,-0.625 -0.597657,-0.941407 l -0.589843,0 0,1.902344 -1.132813,0 0,-5.089844 c 0.109375,-0.02344 0.226563,-0.04297 0.359375,-0.05859 0.132813,-0.02344 0.269531,-0.03516 0.402344,-0.04297 0.136719,-0.01172 0.265625,-0.01953 0.386719,-0.02344 0.125,-0.0078 0.230468,-0.0078 0.324218,-0.0078 m 1.003907,1.683593 c 0,-0.273437 -0.09375,-0.472656 -0.277344,-0.601562 -0.183594,-0.125 -0.425781,-0.191406 -0.726563,-0.191406 -0.04297,0 -0.09375,0.0039 -0.15625,0.0078 -0.0625,0 -0.125,0.0078 -0.183593,0.01953 l 0,1.550781 0.246093,0 c 0.386719,0 0.667969,-0.06641 0.839844,-0.199219 0.171875,-0.140625 0.257813,-0.335938 0.257813,-0.585938"
       id="path36"
       inkscape:connector-curvature="0" />
  </g>
</svg>

<svg width="32" xmlns="http://www.w3.org/2000/svg" height="32" viewBox="0 0 32 32" xmlns:xlink="http://www.w3.org/1999/xlink">
<path style="fill:#e66f00" d="M 5.332031 0.667969 C 4.648438 0.667969 4 1.3125 4 2 L 4 30 C 4 30.648438 4.6875 31.332031 5.332031 31.332031 L 26.667969 31.332031 C 27.3125 31.332031 28 30.648438 28 30 L 28 9.332031 L 19.332031 0.667969 Z "/>
<path style="fill:#000;fill-opacity:.196" d="M 19.332031 8 L 19.375 8.042969 L 19.480469 8 Z M 20.667969 9.332031 L 28 16.667969 L 28 9.332031 Z "/>
<path style="fill:#fff;fill-opacity:.392" d="M 19.332031 0.667969 L 28 9.332031 L 20.667969 9.332031 C 20.019531 9.332031 19.332031 8.648438 19.332031 8 Z "/>
<g style="fill:#fff;fill-rule:evenodd">
<path d="M 14.339844 19.28125 C 14.339844 19.28125 13.855469 19.546875 14.683594 19.636719 C 15.6875 19.746094 16.199219 19.730469 17.304688 19.53125 C 17.304688 19.53125 17.59375 19.703125 18 19.855469 C 15.523438 20.859375 12.394531 19.796875 14.339844 19.28125 "/>
<path d="M 14.035156 17.964844 C 14.035156 17.964844 13.492188 18.347656 14.320312 18.429688 C 15.394531 18.535156 16.238281 18.542969 17.703125 18.273438 C 17.703125 18.273438 17.90625 18.46875 18.222656 18.574219 C 15.230469 19.40625 11.890625 18.640625 14.035156 17.964844 "/>
<path d="M 16.589844 15.738281 C 17.199219 16.402344 16.425781 17.003906 16.425781 17.003906 C 16.425781 17.003906 17.976562 16.246094 17.265625 15.296875 C 16.601562 14.410156 16.089844 13.96875 18.851562 12.449219 C 18.851562 12.449219 14.519531 13.476562 16.589844 15.738281 "/>
<path d="M 19.863281 20.253906 C 19.863281 20.253906 20.222656 20.53125 19.46875 20.746094 C 18.039062 21.160156 13.519531 21.28125 12.261719 20.765625 C 11.8125 20.578125 12.65625 20.320312 12.925781 20.265625 C 13.203125 20.207031 13.359375 20.21875 13.359375 20.21875 C 12.859375 19.882812 10.113281 20.878906 11.96875 21.164062 C 17.019531 21.9375 21.175781 20.8125 19.863281 20.253906 "/>
<path d="M 14.570312 16.605469 C 14.570312 16.605469 12.269531 17.125 13.757812 17.3125 C 14.382812 17.390625 15.632812 17.371094 16.800781 17.28125 C 17.75 17.203125 18.707031 17.042969 18.707031 17.042969 C 18.707031 17.042969 18.371094 17.179688 18.128906 17.335938 C 15.792969 17.917969 11.28125 17.648438 12.578125 17.050781 C 13.679688 16.546875 14.570312 16.605469 14.570312 16.605469 "/>
<path d="M 18.695312 18.792969 C 21.070312 17.621094 19.972656 16.496094 19.207031 16.648438 C 19.019531 16.6875 18.9375 16.71875 18.9375 16.71875 C 18.9375 16.71875 19.003906 16.613281 19.140625 16.570312 C 20.65625 16.066406 21.820312 18.0625 18.648438 18.851562 C 18.648438 18.851562 18.6875 18.820312 18.695312 18.792969 "/>
<path d="M 17.265625 10 C 17.265625 10 18.582031 11.246094 16.019531 13.164062 C 13.964844 14.703125 15.550781 15.582031 16.019531 16.582031 C 14.820312 15.558594 13.9375 14.652344 14.527344 13.8125 C 15.394531 12.578125 17.796875 11.980469 17.265625 10 "/>
<path d="M 14.804688 21.960938 C 17.082031 22.101562 20.582031 21.886719 20.667969 20.863281 C 20.667969 20.863281 20.507812 21.25 18.78125 21.558594 C 16.835938 21.90625 14.4375 21.863281 13.015625 21.644531 C 13.015625 21.640625 13.308594 21.871094 14.804688 21.960938 "/>
</g>
<path style="fill:#000;fill-opacity:.196" d="M 4 23.332031 L 4 30 C 4 30.648438 4.6875 31.332031 5.332031 31.332031 L 26.667969 31.332031 C 27.3125 31.332031 28 30.648438 28 30 L 28 23.332031 Z "/>
<g style="fill:#fff">
<path d="M 12.980469 28.164062 C 12.980469 28.414062 12.945312 28.652344 12.871094 28.875 C 12.804688 29.09375 12.6875 29.289062 12.519531 29.457031 C 12.363281 29.625 12.152344 29.757812 11.894531 29.859375 C 11.636719 29.953125 11.324219 30 10.953125 30 C 10.566406 30 10.246094 29.957031 9.988281 29.867188 C 9.730469 29.777344 9.511719 29.667969 9.332031 29.539062 L 9.765625 28.722656 C 9.921875 28.8125 10.089844 28.898438 10.273438 28.980469 C 10.464844 29.066406 10.65625 29.105469 10.855469 29.105469 C 11.148438 29.105469 11.386719 29.039062 11.5625 28.898438 C 11.746094 28.753906 11.839844 28.488281 11.839844 28.105469 L 11.839844 25.578125 L 9.933594 25.578125 L 9.933594 24.726562 L 12.980469 24.726562 L 12.980469 28.164062 "/>
<path d="M 16.863281 29.890625 L 16.59375 28.699219 L 15.074219 28.699219 L 14.816406 29.890625 L 13.636719 29.890625 C 13.90625 28.875 14.179688 27.945312 14.457031 27.113281 C 14.734375 26.273438 15 25.476562 15.257812 24.726562 L 16.492188 24.726562 C 16.761719 25.480469 17.03125 26.285156 17.292969 27.136719 C 17.566406 27.984375 17.824219 28.902344 18.078125 29.890625 L 16.863281 29.890625 M 15.847656 25.726562 C 15.785156 25.921875 15.726562 26.109375 15.671875 26.285156 C 15.625 26.457031 15.574219 26.628906 15.523438 26.804688 C 15.480469 26.96875 15.4375 27.140625 15.394531 27.3125 C 15.359375 27.484375 15.324219 27.664062 15.285156 27.847656 L 16.402344 27.847656 C 16.363281 27.664062 16.328125 27.484375 16.289062 27.3125 C 16.253906 27.140625 16.210938 26.96875 16.160156 26.804688 C 16.117188 26.628906 16.070312 26.457031 16.015625 26.285156 C 15.964844 26.109375 15.910156 25.921875 15.847656 25.726562 "/>
<path d="M 20.132812 24.667969 C 20.457031 24.667969 20.753906 24.699219 21.015625 24.765625 C 21.28125 24.832031 21.507812 24.9375 21.699219 25.074219 C 21.890625 25.214844 22.035156 25.394531 22.132812 25.609375 C 22.238281 25.820312 22.289062 26.070312 22.289062 26.359375 C 22.289062 26.660156 22.222656 26.933594 22.085938 27.179688 C 21.949219 27.421875 21.726562 27.609375 21.414062 27.738281 C 21.519531 27.882812 21.628906 28.042969 21.746094 28.222656 C 21.863281 28.394531 21.976562 28.578125 22.085938 28.773438 C 22.195312 28.960938 22.300781 29.152344 22.398438 29.347656 C 22.503906 29.539062 22.59375 29.71875 22.667969 29.890625 L 21.476562 29.890625 C 21.335938 29.558594 21.171875 29.238281 20.980469 28.929688 C 20.796875 28.621094 20.597656 28.304688 20.382812 27.988281 L 19.792969 27.988281 L 19.792969 29.890625 L 18.660156 29.890625 L 18.660156 24.800781 C 18.769531 24.777344 18.886719 24.757812 19.019531 24.742188 C 19.152344 24.71875 19.289062 24.707031 19.421875 24.699219 C 19.558594 24.6875 19.6875 24.679688 19.808594 24.675781 C 19.933594 24.667969 20.039062 24.667969 20.132812 24.667969 M 21.136719 26.351562 C 21.136719 26.078125 21.042969 25.878906 20.859375 25.75 C 20.675781 25.625 20.433594 25.558594 20.132812 25.558594 C 20.089844 25.558594 20.039062 25.5625 19.976562 25.566406 C 19.914062 25.566406 19.851562 25.574219 19.792969 25.585938 L 19.792969 27.136719 L 20.039062 27.136719 C 20.425781 27.136719 20.707031 27.070312 20.878906 26.9375 C 21.050781 26.796875 21.136719 26.601562 21.136719 26.351562 "/>
</g>
</svg>
